svgs/regular/file-invoice.svg

<svg xmlns="http://www.w3.org/2000/svg" viewBox="0 0 384 512"><!-- Font Awesome Pro 6.0.0-alpha2 by @fontawesome - https://fontawesome.com License - https://fontawesome.com/license (Commercial License) --><path d="M80 256V320C80 337.672 94.326 352 112 352H272C289.674 352 304 337.672 304 320V256C304 238.328 289.674 224 272 224H112C94.326 224 80 238.328 80 256ZM365.256 93.383L290.627 18.746C278.625 6.742 262.348 0 245.373 0H64C28.654 0 0 28.652 0 64L0.02 448C0.02 483.344 28.674 512 64.02 512H320C355.199 512 384 483.199 384 448V138.641C384 121.664 377.258 105.383 365.256 93.383ZM336.002 448C336.002 456.836 328.838 464 320.002 464H64.018C55.18 464 48.018 456.836 48.018 448L48 64.125C48 55.289 55.164 48.125 64 48.125H224.008V128C224.008 145.672 238.334 160 256.008 160H336.002V448ZM96 128H176C184.844 128 192 120.844 192 112S184.844 96 176 96H96C87.156 96 80 103.156 80 112S87.156 128 96 128ZM96 192H176C184.844 192 192 184.844 192 176S184.844 160 176 160H96C87.156 160 80 167.156 80 176S87.156 192 96 192ZM288 384H208C199.156 384 192 391.156 192 400S199.156 416 208 416H288C296.844 416 304 408.844 304 400S296.844 384 288 384Z"/></svg>

<svg xmlns="http://www.w3.org/2000/svg" viewBox="0 0 384 512"><!--! Font Awesome Pro 6.0.0-alpha3 by @fontawesome - https://fontawesome.com License - https://fontawesome.com/license (Commercial License) --><path d="M80 256v64c0 17.67 14.33 32 32 32h160c17.67 0 32-14.33 32-32V256c0-17.67-14.33-32-32-32h-160C94.33 224 80 238.3 80 256zM365.3 93.38l-74.63-74.64C278.6 6.742 262.3 0 245.4 0H64C28.65 0 0 28.65 0 64l.0065 384c0 35.34 28.65 64 64 64H320c35.2 0 64-28.8 64-64V138.6C384 121.7 377.3 105.4 365.3 93.38zM336 448c0 8.836-7.164 16-16 16H64.02c-8.838 0-16-7.164-16-16L48 64.13c0-8.836 7.164-16 16-16h160L224 128c0 17.67 14.33 32 32 32h79.1V448zM96 128h80C184.8 128 192 120.8 192 112S184.8 96 176 96H96C87.16 96 80 103.2 80 112S87.16 128 96 128zM96 192h80C184.8 192 192 184.8 192 176S184.8 160 176 160H96C87.16 160 80 167.2 80 176S87.16 192 96 192zM288 384h-80c-8.844 0-16 7.156-16 16s7.156 16 16 16H288c8.844 0 16-7.156 16-16S296.8 384 288 384z"/></svg>
